src/images/bg/wave.svg

<?xml version="1.0" encoding="utf-8"?>
<!-- Generator: Adobe Illustrator 25.0.0, SVG Export Plug-In . SVG Version: 6.00 Build 0)  -->
<svg version="1.1" id="Layer_1" xmlns="http://www.w3.org/2000/svg" xmlns:xlink="http://www.w3.org/1999/xlink" x="0px" y="0px"
	 viewBox="0 0 1440 320" style="enable-background:new 0 0 1440 320;" xml:space="preserve">
<style type="text/css">
	.st0{fill:#2E23FC;}
</style>
<path class="st0" d="M0,64l48-5.3C96,53,192,43,288,42.7C384,43,480,53,576,53.3C672,53,768,43,864,42.7C960,43,1056,53,1152,64
	s192,21,240,26.7l48,5.3v224h-48c-48,0-144,0-240,0s-192,0-288,0s-192,0-288,0s-192,0-288,0s-192,0-240,0H0V64z"/>
</svg>

<?xml version="1.0" standalone="no"?><svg xmlns="http://www.w3.org/2000/svg" viewBox="0 0 1440 320"><path fill="blue" fill-opacity="1" d="M0,64L48,58.7C96,53,192,43,288,42.7C384,43,480,53,576,53.3C672,53,768,43,864,42.7C960,43,1056,53,1152,64C1248,75,1344,85,1392,90.7L1440,96L1440,320L1392,320C1344,320,1248,320,1152,320C1056,320,960,320,864,320C768,320,672,320,576,320C480,320,384,320,288,320C192,320,96,320,48,320L0,320Z"></path></svg>
